src/topics/icons/pm2.svg

<svg height="88" preserveAspectRatio="xMidYMid" viewBox="0 0 512 88" width="512" xmlns="http://www.w3.org/2000/svg"><path d="m260.758341 1.13228747h19.023901c16.045471 23.12831213 32.633429 47.54240653 49.372781 71.67264063 16.686784-24.070308 32.717536-48.2625708 48.953297-71.68210264h19.033364v86.13795484h-12.544526v-73.7690021l-50.711129 73.7690021-9.68805-.01577-50.675384-73.7532321-.120903 73.7690021h-12.643351z" fill="#1fd3ef"/><path d="m428.068797 32.504115s-7.795647.0872608-10.864493.0872608c-1.839836-21.7279343 4.275778-29.35641892 22.174751-30.83564685 19.528543-.70439425 33.721561-.39740451 51.405011-.003154 13.118554 1.02084599 19.024952 6.15241068 20.723909 19.22575765.537232 4.1370021.59085 8.402267.299631 12.5687064-.853684 12.2028419-6.436271 18.149191-18.668551 19.3287885-14.632476 1.4119425-29.316468 2.2792936-43.972073 3.4673019-4.005586.3248624-8.038506.6949322-11.967343 1.4939466-7.309931 1.4865872-10.026579 3.1844928-10.35775 10.4996796-.117749 2.6073101.14929 6.2470308.14929 9.464115h84.833248l.088312 9.4599097h-95.0743c.104083-7.2573635-.574028-15.3747187.489922-22.6352362 1.458202-9.9414209 8.075302-14.7828172 17.308124-16.421848 15.199145-2.6977248 30.667433-2.5936427 45.991687-4.0308172 3.65444-.3427352 7.305725-.7769364 10.931779-1.3383491 2.263523-.3511458 3.675466-.0599261 5.984197-2.5337167 4.292599-2.4527638 3.692287-14.2802792 2.628337-21.9897166-1.327836-5.6645914-6.801085-8.0427105-12.16184-8.2445667-15.752148-.5929528-31.520066-.62133883-47.270111.0273347-7.795647.3217084-11.838029 4.8708337-12.503524 13.4360575-.227088 2.9164024-.168213 8.974193-.168213 8.974193" fill="#5d5d5d"/><path d="m151.56777 11.1704312.043105-10.29466939s50.559737-.01787269 73.156074.00105133c15.041445.01261602 21.779449 6.64653799 22.053848 21.72898566.086209 4.7194414-.057824 9.4199589-.660238 14.1341437-1.237421 9.6954086-6.292239 14.9731088-16.071754 16.5417002-6.45099 1.033462-12.928263.5961068-19.393971.6265955-15.566062.0714908-31.133175.0231294-47.380501.0231294v33.3294127h-11.677175v-43.6303902s44.332682.2712444 63.597339.0252321c14.728148-.1871376 20.68501-1.3183737 18.483515-21.47246-.85894-7.8597782-3.749059-10.5753758-12.036731-10.7509486-13.831359-.2943738-70.113511-.2617824-70.113511-.2617824" fill="#1fd3ef"/><path d="m64.3406324 87.7128542c-18.193347.0010513-36.3877453.0452074-54.58109236-.022078-6.39632033-.0231294-9.77531006-3.7522136-8.79126078-9.4630637.8967885-5.2062094 4.49235318-6.4646571 9.22441064-6.4562464 33.0634251.0588748 66.1279015.0304887 99.1913261.0304887 3.498842 0 6.999787-.0799014 10.495475.0199754 5.346037.1524435 8.427499 3.081462 8.485322 7.8965749.058875 4.7993429-2.988944 7.921807-8.393856 7.9522957-18.54239.1040822-37.0868831.0399507-55.6303246.0420534" fill="#1fd3ef"/><path d="m64.3406324 53.8073101c-18.193347.0010513-36.3877453.0452074-54.58109236-.0220781-6.39632033-.0231293-9.77531006-3.7522135-8.79126078-9.4630636.8967885-5.2062095 4.49235318-6.4646571 9.22441064-6.4562464 33.0634251.059926 66.1279015.0304887 99.1913261.0304887 3.498842 0 6.999787-.0799015 10.495475.0199753 5.346037.1524436 8.427499 3.081462 8.485322 7.896575.058875 4.7993429-2.988944 7.921807-8.393856 7.9522957-18.54239.1040821-37.0868831.0399507-55.6303246.0420534" fill="#5d5d5d"/><path d="m64.3406324 18.0619302c-18.193347.0010513-36.3877453.0452074-54.58109236-.022078-6.39632033-.0231294-9.77531006-3.7522136-8.79126078-9.4630637.8967885-5.20620944 4.49235318-6.46465708 9.22441064-6.45624641 33.0634251.05887475 66.1279015.03048871 99.1913261.03048871 3.498842 0 6.999787-.0788501 10.495475.01997536 5.346037.15244353 8.427499 3.08146201 8.485322 7.89657494.058875 4.7993429-2.988944 7.921807-8.393856 7.9522957-18.54239.1040821-37.0868831.0399507-55.6303246.0420534" fill="#1fd3ef"/></svg>

<?xml version="1.0" encoding="UTF-8" standalone="no"?>
<svg width="512px" height="88px" viewBox="0 0 512 88" version="1.1" xmlns="http://www.w3.org/2000/svg" xmlns:xlink="http://www.w3.org/1999/xlink" preserveAspectRatio="xMidYMid">
	<g>
		<path d="M260.758341,1.13228747 L279.782242,1.13228747 C295.827713,24.2605996 312.415671,48.674694 329.155023,72.8049281 C345.841807,48.7346201 361.872559,24.5423573 378.10832,1.12282546 L397.141684,1.12282546 L397.141684,87.2607803 L384.597158,87.2607803 L384.597158,13.4917782 L333.886029,87.2607803 L324.197979,87.2450103 L273.522595,13.4917782 L273.401692,87.2607803 L260.758341,87.2607803 L260.758341,1.13228747" fill="#1FD3EF"></path>
		<path d="M428.068797,32.504115 C428.068797,32.504115 420.27315,32.5913758 417.204304,32.5913758 C415.364468,10.8634415 421.480082,3.23495688 439.379055,1.75572895 C458.907598,1.0513347 473.100616,1.35832444 490.784066,1.75257495 C503.90262,2.77342094 509.809018,7.90498563 511.507975,20.9783326 C512.045207,25.1153347 512.098825,29.3805996 511.807606,33.547039 C510.953922,45.7498809 505.371335,51.69623 493.139055,52.8758275 C478.506579,54.28777 463.822587,55.1551211 449.166982,56.3431294 C445.161396,56.6679918 441.128476,57.0380616 437.199639,57.837076 C429.889708,59.3236632 427.17306,61.0215688 426.841889,68.3367556 C426.72414,70.9440657 426.991179,74.5837864 426.991179,77.8008706 L511.824427,77.8008706 L511.912739,87.2607803 L416.838439,87.2607803 C416.942522,80.0034168 416.264411,71.8860616 417.328361,64.6255441 C418.786563,54.6841232 425.403663,49.8427269 434.636485,48.2036961 C449.83563,45.5059713 465.303918,45.6100534 480.628172,44.1728789 C484.282612,43.8301437 487.933897,43.3959425 491.559951,42.8345298 C493.823474,42.483384 495.235417,42.7746037 497.544148,40.3008131 C501.836747,37.8480493 501.236435,26.0205339 500.172485,18.3110965 C498.844649,12.6465051 493.3714,10.268386 488.010645,10.0665298 C472.258497,9.473577 456.490579,9.44519097 440.740534,10.0938645 C432.944887,10.4155729 428.902505,14.9646982 428.23701,23.529922 C428.009922,26.4463244 428.068797,32.504115 428.068797,32.504115" fill="#5D5D5D"></path>
		<path d="M151.56777,11.1704312 L151.610875,0.875761807 C151.610875,0.875761807 202.170612,0.857889117 224.766949,0.876813142 C239.808394,0.889429158 246.546398,7.52335113 246.820797,22.6057988 C246.907006,27.3252402 246.762973,32.0257577 246.160559,36.7399425 C244.923138,46.4353511 239.86832,51.7130513 230.088805,53.2816427 C223.637815,54.3151047 217.160542,53.8777495 210.694834,53.9082382 C195.128772,53.979729 179.561659,53.9313676 163.314333,53.9313676 L163.314333,87.2607803 L151.637158,87.2607803 L151.637158,43.6303901 C151.637158,43.6303901 195.96984,43.9016345 215.234497,43.6556222 C229.962645,43.4684846 235.919507,42.3372485 233.718012,22.1831622 C232.859072,14.323384 229.968953,11.6077864 221.681281,11.4322136 C207.849922,11.1378398 151.56777,11.1704312 151.56777,11.1704312" fill="#1FD3EF"></path>
		<path d="M64.3406324,87.7128542 C46.1472854,87.7139055 27.9528871,87.7580616 9.75954004,87.6907762 C3.36321971,87.6676468 -0.0157700205,83.9385626 0.968279261,78.2277125 C1.86506776,73.0215031 5.46063244,71.7630554 10.1926899,71.7714661 C43.256115,71.8303409 76.3205914,71.8019548 109.384016,71.8019548 C112.882858,71.8019548 116.383803,71.7220534 119.879491,71.8219302 C125.225528,71.9743737 128.30699,74.9033922 128.364813,79.7185051 C128.423688,84.517848 125.375869,87.6403121 119.970957,87.6708008 C101.428567,87.774883 82.8840739,87.7107515 64.3406324,87.7128542" fill="#1FD3EF"></path>
		<path d="M64.3406324,53.8073101 C46.1472854,53.8083614 27.9528871,53.8525175 9.75954004,53.785232 C3.36321971,53.7621027 -0.0157700205,50.0330185 0.968279261,44.3221684 C1.86506776,39.1159589 5.46063244,37.8575113 10.1926899,37.865922 C43.256115,37.925848 76.3205914,37.8964107 109.384016,37.8964107 C112.882858,37.8964107 116.383803,37.8165092 119.879491,37.916386 C125.225528,38.0688296 128.30699,40.997848 128.364813,45.812961 C128.423688,50.6123039 125.375869,53.734768 119.970957,53.7652567 C101.428567,53.8693388 82.8840739,53.8052074 64.3406324,53.8073101" fill="#5D5D5D"></path>
		<path d="M64.3406324,18.0619302 C46.1472854,18.0629815 27.9528871,18.1071376 9.75954004,18.0398522 C3.36321971,18.0167228 -0.0157700205,14.2876386 0.968279261,8.5767885 C1.86506776,3.37057906 5.46063244,2.11213142 10.1926899,2.12054209 C43.256115,2.17941684 76.3205914,2.1510308 109.384016,2.1510308 C112.882858,2.1510308 116.383803,2.0721807 119.879491,2.17100616 C125.225528,2.32344969 128.30699,5.25246817 128.364813,10.0675811 C128.423688,14.866924 125.375869,17.9893881 119.970957,18.0198768 C101.428567,18.1239589 82.8840739,18.0598275 64.3406324,18.0619302" fill="#1FD3EF"></path>
	</g>
</svg>
